X:1
T:Bellman, 87.87 D
T:Bellman, 87.87 D
T:Carl Michael Bellman (1740-1795)
T:Public Domain Courtesy of the Cyber Hymnal™
C:Carl Michael Bellman (1740-1795)
Z:Public Domain
Z:Courtesy of the Cyber Hymnal™
%%score ( 1 2 ) ( 3 4 )
L:1/8
Q:1/4=113
M:4/4
K:A
V:1 treble 
V:2 treble 
V:3 bass 
V:4 bass 
V:1
 [Cc][DF] | E2 [DE]2 E2 [DE]2 | [CA]2 [EA]2 z2 [Ac][Ae] | [Ad]2 [Gd]2 [Fd]2 (ed) | %4
 [Ac]4 z2 [EA][DF] | E2 [DE]2 [CE]2 [CE]2 | [EA]2 [DA]4 [Ee][Ec] | [FB]2 [DB]2 (BA) ([DB][Ec]) | %8
 [CA]4 z2 [ce][Bd] | [Ac]2 [Ac]2 [Bc]2 [^Af]2 | [Fe]2 [Fd]4 [Fd][Fc] | [FB]2 [GB]2 [GB]2 [Ge]2 | %12
 (d2 c4) [EA][DF] | E2 [DE]2 E2 [DE]2 | [CA]2 [EA]4 [Ae][Ac] | B2 [AB]2 ([GB][FA]) (Bc) | %16
 [EA]4 z2 |] %17
V:2
 x2 | E2 E2 x4 | x8 | x6 G2 | x8 | E2 x6 | x8 | x4 D2 x2 | x8 | x8 | x8 | x8 | E6 x2 | E2 E2 x4 | %14
 x8 | B2 x2 G2 x2 | x6 |] %17
V:3
 A,[A,B,] | [A,C]2 [A,B,]2 [A,C]2 [A,B,]2 | A,2 [A,C]2 z2 [A,E][CE] | [B,E]2 [E,E]2 [B,E]2 [B,D]2 | %4
 [A,E]4 z2 [A,C][A,B,] | [A,C]2 [A,B,]2 A,2 [G,A,]2 | [F,A,]2 [F,A,]4 [C,A,][A,,A,] | %7
 [D,A,]2 [B,,A,]2 [E,A,]2 [E,G,]2 | [A,,A,]4 z4 | [CE][B,D][A,C][G,B,] [=G,E]2 [F,C]2 | %10
 [^A,C]2 [B,D]4 [B,,B,][C,A,] | ([D,B,][^D,A,]) ([E,G,][F,A,]) ([G,B,][F,A,]) [E,B,]2 | %12
 ([G,B,]2 [A,C]4) [A,C][A,B,] | [A,C]2 [A,B,]2 [A,C]2 [A,B,]2 | A,2 [A,C]4 [=G,C][G,E] | %15
 [F,^D]2 [=F,=D]2 [E,E]2 [E,D]2 | [A,,E,C]4 z2 |] %17
V:4
 A, x | x8 | A,2 x6 | x8 | x8 | x4 A,2 x2 | x8 | x8 | x8 | x8 | x8 | x8 | x8 | x8 | A,2 x6 | x8 | %16
 x6 |] %17

